X:1
T:Title
%%score ( 1 2 ) ( 3 4 )
L:1/8
Q:1/4=88
M:6/8
K:G
V:1 treble nm="Drawbar Organ, Soprano"
V:2 treble 
V:3 bass nm="Church Organ, Signal Lights"
V:4 bass 
V:1
 DG[B,DA] BA[B,DG] | [CE]3 [CEA]3 | [CG]2 [CF] [CA]2 [CF] | [_B,E]3 .[=B,D]3 | %4
w: By~Isaac~Hickman~Meredith * * * * *||||
 B,-[B,G][B,DA] BA[B,DG] | [DF]3 [DA]3 | [DB]2 [GB] [G^c]2 [GA] | [Fd]6 | B3 d3 | B3 E3 | .A3 .d3 | %11
w: |||||||
 G3 D3 | .G3 .G3 | F6 | .A3 .A3 | d6 | B3 d3 | B3 E3 | .A3 .d3 | G3 D3 | E2 [^DF] [EG]2 [FA] | %21
w: ||||||||||
 [GB]2 [Ge] dBG | [GB]3 A2- [DA] | [DG]6- | [DG]3 z3 |] %25
w: ||||
V:2
 .B,3 .[B,D]3 | x6 | x6 | x6 | .D3 .[B,D]3 | x6 | x6 | x6 | z [DG][DG] z [GB][GB] | %9
 z [^CG][CG] z [A,C][A,C] | z [CF][CFB] z [CF][CFB] | z [B,D][B,D] z [G,B,][G,B,] | %12
 z [B,D][B,DA] z [B,D][DE] | z [CD][CD] z [CD][CD] | z [CD][CDB] z [CF]D | %15
 z [DG][DG] z [DFc][DFc] | z [DG][DG] z [DG][DG] | z [^CG][CG] z [A,C][A,C] | %18
 z [CF][CFB] z [CF][CFB] | z [B,D][B,D] z [G,B,][G,B,] | x6 | z3 .G3 | z3 .F3 | x6 | x6 |] %25
V:3
 A,,2 D, G,2 D, | C,2 E, A,2 E, | F,,2 D, F,2 D, | G,,2 ^C, D,2 B,, | G,,2 D, G,2 D, | %5
 A,,2 D, F,2 D, | G,2 E, A,2 [A,^C] | D3 .C3 | B,3 D3 | B,3 E,3 | D,3 D,3 | G,,3 G,,3 | %12
 B,,3 B,,2 _B,, | A,,3 D,,3 | F,,3 D,,2 C, | B,,3 A,,3 | G,,3 B,,3 | E,,3 A,,3 | D,,3 D,3 | %19
 G,,3 G,,3 | [C,G,]2 [B,,B,] [E,B,]2 [D,D] | z3 .B,3 | [D,D]3 [D,C]3 | [G,B,]6- | [G,B,]3 z3 |] %25
V:4
 x6 | x6 | x6 | x6 | x6 | x6 | x6 | D,6 | x6 | x6 | x6 | x6 | x6 | x6 | x6 | x6 | x6 | x6 | x6 | %19
 x6 | x6 | [G,D]2 C D-[G,D][E,^C] | x6 | x6 | x6 |] %25

